X:932
T:Westering Home #2
C:Joe Buchanan's Scottish Tome - Page 546.2
I:546 2
Z:Carl Allison
R:Waltz
L:1/4
M:3/4
K:G
F/E/ | "G"D>E D | "Bm"D B, D | "Em"G G A | "G7"B3 | "Am"c>B A | "G/B"B A G | "A7"E E D | "D7"D3 |
"G"D>E D | "D/F#"D B, D | "Em"G G A | "Bm"B2 c | "Em"d>B G | "D7"A>B A | "C"G3 | "C"G3 | 
"G"d>B G | "Em"G A B | "Am"A>G A | "D7"D3 | "G"D E F | "Em"G A B | "Am"c>B c | "D7"A3 | 
"G"d>B G | "Em"G A B | "Am"A>B A | "D7"D2 c | "Em"B>A B | "Bm"B B A | "C"G3 | "D7"G2 |]

